public/svg/gitlab.svg

<svg width="24" height="24" viewBox="0 0 24 24" fill="none" xmlns="http://www.w3.org/2000/svg">
<path fill-rule="evenodd" clip-rule="evenodd" d="M11.9998 23.0521L16.4098 9.45605H7.58984L11.9998 23.0521Z" fill="#E24329"/>
<path fill-rule="evenodd" clip-rule="evenodd" d="M12 23.0521L7.59602 9.45605H1.41602L12 23.0521Z" fill="#FC6D26"/>
<path fill-rule="evenodd" clip-rule="evenodd" d="M1.41597 9.45605L0.0779721 13.5841C-0.0420279 13.9621 0.0899721 14.3761 0.407972 14.6041L12 23.0581L1.41597 9.45605Z" fill="#FCA326"/>
<path fill-rule="evenodd" clip-rule="evenodd" d="M1.41602 9.45572H7.59602L4.93802 1.25972C4.90748 1.16936 4.84937 1.09084 4.77188 1.03523C4.69438 0.979618 4.6014 0.949707 4.50602 0.949707C4.41063 0.949707 4.31765 0.979618 4.24015 1.03523C4.16266 1.09084 4.10455 1.16936 4.07402 1.25972L1.41602 9.45572Z" fill="#E24329"/>
<path fill-rule="evenodd" clip-rule="evenodd" d="M12 23.0521L16.41 9.45605H22.584L12 23.0521Z" fill="#FC6D26"/>
<path fill-rule="evenodd" clip-rule="evenodd" d="M22.584 9.45605L23.922 13.5841C24.042 13.9621 23.91 14.3761 23.592 14.6041L12 23.0581L22.584 9.46205V9.45605Z" fill="#FCA326"/>
<path fill-rule="evenodd" clip-rule="evenodd" d="M22.5843 9.45572H16.4043L19.0623 1.25972C19.0928 1.16936 19.1509 1.09084 19.2284 1.03523C19.3059 0.979618 19.3989 0.949707 19.4943 0.949707C19.5897 0.949707 19.6827 0.979618 19.7602 1.03523C19.8377 1.09084 19.8958 1.16936 19.9263 1.25972L22.5843 9.45572Z" fill="#E24329"/>
</svg>

<svg xmlns="http://www.w3.org/2000/svg" width="24" height="24" fill="none" fill-rule="evenodd" xmlns:v="https://vecta.io/nano"><path d="M12 23.052l4.41-13.596H7.59L12 23.052z" fill="#e24329"/><path d="M12 23.052L7.596 9.456h-6.18L12 23.052z" fill="#fc6d26"/><path d="M1.416 9.456L.078 13.584c-.12.378.012.792.33 1.02L12 23.058 1.416 9.456z" fill="#fca326"/><path d="M1.416 9.456h6.18L4.938 1.26c-.031-.09-.089-.169-.166-.224S4.601.95 4.506.95s-.188.03-.266.086-.136.134-.166.224L1.416 9.456z" fill="#e24329"/><path d="M12 23.052l4.41-13.596h6.174L12 23.052z" fill="#fc6d26"/><path d="M22.584 9.456l1.338 4.128c.12.378-.012.792-.33 1.02L12 23.058 22.584 9.462v-.006z" fill="#fca326"/><path d="M22.584 9.456h-6.18l2.658-8.196c.03-.09.089-.169.166-.224s.171-.086.266-.086.188.03.266.086.136.134.166.224l2.658 8.196z" fill="#e24329"/></svg>
